Icons/com_skype_android_access.svg

<svg viewBox="0 0 48 48" xmlns:xlink="http://www.w3.org/1999/xlink">
 <defs>
  <linearGradient id="0">
   <stop stop-opacity="0"/>
   <stop offset="1"/>
  </linearGradient>
  <linearGradient xlink:href="#0" id="1" gradientUnits="userSpaceOnUse" gradientTransform="translate(4e-7,-48)" y1="47" x2="0" y2="1"/>
  <clipPath id="2">
   <g transform="translate(0,-1004.3622)">
    <rect rx="4" y="1005.36" x="1" height="46" width="46" fill="#1890d0"/>
   </g>
  </clipPath>
  <clipPath id="3">
   <g transform="translate(0,-1004.3622)">
    <rect rx="4" y="1005.36" x="1" height="46" width="46" fill="#1890d0"/>
   </g>
  </clipPath>
 </defs>
 <g>
  <g transform="translate(0,-1004.3622)">
   <path d="m 5,1006.3622 c -2.216,0 -4,1.784 -4,4 l 0,37.25 c 0,2.216 1.784,4 4,4 l 38,0 c 2.216,0 4,-1.784 4,-4 l 0,-37.25 c 0,-2.216 -1.784,-4 -4,-4 l -38,0 z m -4,41.5 0,0.5 c 0,2.216 1.784,4 4,4 l 38,0 c 2.216,0 4,-1.784 4,-4 l 0,-0.5 c 0,2.216 -1.784,4 -4,4 l -38,0 c -2.216,0 -4,-1.784 -4,-4 z" opacity="0.02"/>
   <path d="m 1,1047.6122 0,0.25 c 0,2.216 1.784,4 4,4 l 38,0 c 2.216,0 4,-1.784 4,-4 l 0,-0.25 c 0,2.216 -1.784,4 -4,4 l -38,0 c -2.216,0 -4,-1.784 -4,-4 z" opacity="0.05"/>
   <rect width="46" height="46" x="1" y="1005.61" rx="4" opacity="0.1"/>
  </g>
 </g>
 <g>
  <g transform="translate(0,-1004.3622)">
   <rect rx="4" y="1005.36" x="1" height="46" width="46" fill="#10b8f8"/>
  </g>
 </g>
 <g>
  <rect transform="scale(1,-1)" width="46" height="46" x="1" y="-46.998" rx="4" opacity="0.1" fill="url(#1)"/>
 </g>
 <g>
  <g clip-path="url(#2)">
   <g opacity="0.1">
    <g>
     <path d="M 18.15625 11 C 16.628906 10.988281 15.121094 11.484375 13.839844 12.441406 C 13.5 12.695312 12.898438 13.269531 12.621094 13.609375 C 11.261719 15.273438 10.714844 17.472656 11.140625 19.59375 C 11.238281 20.0625 11.480469 20.78125 11.703125 21.265625 L 11.886719 21.65625 L 11.816406 22.132812 C 11.519531 24.101562 11.699219 26.136719 12.332031 27.984375 C 13.574219 31.613281 16.398438 34.4375 20.023438 35.679688 C 21.875 36.316406 23.90625 36.492188 25.875 36.195312 L 26.351562 36.125 L 26.742188 36.308594 C 27.460938 36.644531 28.324219 36.894531 29.074219 36.976562 C 29.488281 37.023438 30.578125 36.996094 30.980469 36.925781 C 32.46875 36.675781 33.742188 36.039062 34.804688 35.011719 C 36.167969 33.691406 36.917969 32.03125 36.992188 30.136719 C 37.042969 28.976562 36.808594 27.832031 36.296875 26.746094 L 36.113281 26.355469 L 36.1875 25.878906 C 36.484375 23.910156 36.304688 21.878906 35.671875 20.027344 C 34.429688 16.398438 31.605469 13.574219 27.980469 12.332031 C 26.128906 11.695312 24.097656 11.519531 22.128906 11.816406 L 21.652344 11.890625 L 21.261719 11.707031 C 20.261719 11.234375 19.203125 11.003906 18.15625 11 Z M 23.753906 18.15625 C 26.082031 18.15625 28.128906 19.195312 29.777344 20.851562 C 30.265625 21.339844 30.820312 22.03125 30.945312 22.3125 C 31.085938 22.621094 31.011719 23.042969 30.769531 23.292969 C 30.582031 23.484375 30.441406 23.550781 30.175781 23.574219 C 29.855469 23.597656 29.699219 23.738281 29.273438 23.367188 C 28.34375 22.542969 27.414062 21.785156 26.316406 21.421875 C 25.375 21.109375 24.660156 20.992188 23.648438 20.992188 C 22.632812 20.992188 21.917969 21.109375 20.972656 21.421875 C 19.878906 21.785156 18.964844 22.320312 18.023438 23.144531 C 17.832031 23.3125 17.613281 23.480469 17.535156 23.515625 C 17.382812 23.585938 17.078125 23.597656 16.902344 23.546875 C 16.414062 23.398438 16.136719 22.777344 16.347656 22.3125 C 16.476562 22.03125 17.027344 21.339844 17.515625 20.851562 C 19.167969 19.195312 21.425781 18.15625 23.753906 18.15625 Z M 23.671875 23.488281 C 25.027344 23.5 26.351562 23.9375 27.480469 24.792969 C 27.796875 25.035156 27.914062 25.171875 27.992188 25.40625 C 28.109375 25.75 28 26.144531 27.71875 26.398438 C 27.523438 26.578125 27.355469 26.640625 27.097656 26.644531 C 26.898438 26.644531 26.832031 26.621094 26.351562 26.390625 C 25.753906 26.101562 25.34375 25.957031 24.773438 25.84375 C 24.433594 25.773438 24.261719 25.761719 23.648438 25.761719 C 23.03125 25.761719 22.859375 25.777344 22.523438 25.84375 C 21.957031 25.957031 21.542969 26.097656 20.953125 26.382812 C 20.394531 26.648438 20.21875 26.691406 19.953125 26.617188 C 19.78125 26.570312 19.734375 26.542969 19.542969 26.367188 C 19.199219 26.058594 19.160156 25.496094 19.453125 25.113281 C 19.734375 24.746094 20.929688 24.042969 21.679688 23.800781 C 22.339844 23.589844 23.011719 23.484375 23.671875 23.488281 Z M 23.503906 28.175781 C 23.957031 28.175781 24.351562 28.386719 24.609375 28.769531 C 24.777344 29.023438 24.828125 29.199219 24.828125 29.53125 C 24.824219 29.878906 24.722656 30.140625 24.488281 30.398438 C 24.230469 30.679688 23.9375 30.816406 23.5625 30.828125 C 23.382812 30.84375 23.214844 30.816406 23.121094 30.792969 C 22.550781 30.605469 22.183594 30.113281 22.179688 29.53125 C 22.175781 29.199219 22.226562 29.023438 22.394531 28.769531 C 22.652344 28.386719 23.046875 28.175781 23.503906 28.175781 Z M 23.503906 28.175781 "/>
    </g>
   </g>
  </g>
 </g>
 <g>
  <g clip-path="url(#3)">
   <g transform="translate(0,-1)">
    <g>
     <path d="M 18.15625 11 C 16.628906 10.988281 15.121094 11.484375 13.839844 12.441406 C 13.5 12.695312 12.898438 13.269531 12.621094 13.609375 C 11.261719 15.273438 10.714844 17.472656 11.140625 19.59375 C 11.238281 20.0625 11.480469 20.78125 11.703125 21.265625 L 11.886719 21.65625 L 11.816406 22.132812 C 11.519531 24.101562 11.699219 26.136719 12.332031 27.984375 C 13.574219 31.613281 16.398438 34.4375 20.023438 35.679688 C 21.875 36.316406 23.90625 36.492188 25.875 36.195312 L 26.351562 36.125 L 26.742188 36.308594 C 27.460938 36.644531 28.324219 36.894531 29.074219 36.976562 C 29.488281 37.023438 30.578125 36.996094 30.980469 36.925781 C 32.46875 36.675781 33.742188 36.039062 34.804688 35.011719 C 36.167969 33.691406 36.917969 32.03125 36.992188 30.136719 C 37.042969 28.976562 36.808594 27.832031 36.296875 26.746094 L 36.113281 26.355469 L 36.1875 25.878906 C 36.484375 23.910156 36.304688 21.878906 35.671875 20.027344 C 34.429688 16.398438 31.605469 13.574219 27.980469 12.332031 C 26.128906 11.695312 24.097656 11.519531 22.128906 11.816406 L 21.652344 11.890625 L 21.261719 11.707031 C 20.261719 11.234375 19.203125 11.003906 18.15625 11 Z M 23.753906 18.15625 C 26.082031 18.15625 28.128906 19.195312 29.777344 20.851562 C 30.265625 21.339844 30.820312 22.03125 30.945312 22.3125 C 31.085938 22.621094 31.011719 23.042969 30.769531 23.292969 C 30.582031 23.484375 30.441406 23.550781 30.175781 23.574219 C 29.855469 23.597656 29.699219 23.738281 29.273438 23.367188 C 28.34375 22.542969 27.414062 21.785156 26.316406 21.421875 C 25.375 21.109375 24.660156 20.992188 23.648438 20.992188 C 22.632812 20.992188 21.917969 21.109375 20.972656 21.421875 C 19.878906 21.785156 18.964844 22.320312 18.023438 23.144531 C 17.832031 23.3125 17.613281 23.480469 17.535156 23.515625 C 17.382812 23.585938 17.078125 23.597656 16.902344 23.546875 C 16.414062 23.398438 16.136719 22.777344 16.347656 22.3125 C 16.476562 22.03125 17.027344 21.339844 17.515625 20.851562 C 19.167969 19.195312 21.425781 18.15625 23.753906 18.15625 Z M 23.671875 23.488281 C 25.027344 23.5 26.351562 23.9375 27.480469 24.792969 C 27.796875 25.035156 27.914062 25.171875 27.992188 25.40625 C 28.109375 25.75 28 26.144531 27.71875 26.398438 C 27.523438 26.578125 27.355469 26.640625 27.097656 26.644531 C 26.898438 26.644531 26.832031 26.621094 26.351562 26.390625 C 25.753906 26.101562 25.34375 25.957031 24.773438 25.84375 C 24.433594 25.773438 24.261719 25.761719 23.648438 25.761719 C 23.03125 25.761719 22.859375 25.777344 22.523438 25.84375 C 21.957031 25.957031 21.542969 26.097656 20.953125 26.382812 C 20.394531 26.648438 20.21875 26.691406 19.953125 26.617188 C 19.78125 26.570312 19.734375 26.542969 19.542969 26.367188 C 19.199219 26.058594 19.160156 25.496094 19.453125 25.113281 C 19.734375 24.746094 20.929688 24.042969 21.679688 23.800781 C 22.339844 23.589844 23.011719 23.484375 23.671875 23.488281 Z M 23.503906 28.175781 C 23.957031 28.175781 24.351562 28.386719 24.609375 28.769531 C 24.777344 29.023438 24.828125 29.199219 24.828125 29.53125 C 24.824219 29.878906 24.722656 30.140625 24.488281 30.398438 C 24.230469 30.679688 23.9375 30.816406 23.5625 30.828125 C 23.382812 30.84375 23.214844 30.816406 23.121094 30.792969 C 22.550781 30.605469 22.183594 30.113281 22.179688 29.53125 C 22.175781 29.199219 22.226562 29.023438 22.394531 28.769531 C 22.652344 28.386719 23.046875 28.175781 23.503906 28.175781 Z M 23.503906 28.175781 " fill="#f9f9f9"/>
    </g>
   </g>
  </g>
 </g>
 <g>
  <g transform="translate(0,-1004.3622)">
   <path d="m 1,1043.3622 0,4 c 0,2.216 1.784,4 4,4 l 38,0 c 2.216,0 4,-1.784 4,-4 l 0,-4 c 0,2.216 -1.784,4 -4,4 l -38,0 c -2.216,0 -4,-1.784 -4,-4 z" opacity="0.1"/>
  </g>
 </g>
</svg>

<svg viewBox="0 0 48 48"><defs><linearGradient id="linearGradient3764" x1="1" x2="47" gradientUnits="userSpaceOnUse" gradientTransform="translate(-48.000001,0.00221467)"><stop stop-color="#07afed" stop-opacity="1"/><stop offset="1" stop-color="#10b8f8" stop-opacity="1"/></linearGradient><clipPath id="clipPath-111658635"><g transform="translate(0,-1004.3622)"><rect rx="4" y="1005.36" x="1" height="46" width="46" fill="#1890d0"/></g></clipPath><clipPath id="clipPath-126276412"><g transform="translate(0,-1004.3622)"><rect rx="4" y="1005.36" x="1" height="46" width="46" fill="#1890d0"/></g></clipPath></defs><g><path d="m 1 43 l 0 0.25 c 0 2.216 1.784 4 4 4 l 38 0 c 2.216 0 4 -1.784 4 -4 l 0 -0.25 c 0 2.216 -1.784 4 -4 4 l -38 0 c -2.216 0 -4 -1.784 -4 -4 z m 0 0.5 l 0 0.5 c 0 2.216 1.784 4 4 4 l 38 0 c 2.216 0 4 -1.784 4 -4 l 0 -0.5 c 0 2.216 -1.784 4 -4 4 l -38 0 c -2.216 0 -4 -1.784 -4 -4 z" opacity="0.02"/><path d="m 1 43.25 l 0 0.25 c 0 2.216 1.784 4 4 4 l 38 0 c 2.216 0 4 -1.784 4 -4 l 0 -0.25 c 0 2.216 -1.784 4 -4 4 l -38 0 c -2.216 0 -4 -1.784 -4 -4 z" opacity="0.05"/><path d="m 1 43 l 0 0.25 c 0 2.216 1.784 4 4 4 l 38 0 c 2.216 0 4 -1.784 4 -4 l 0 -0.25 c 0 2.216 -1.784 4 -4 4 l -38 0 c -2.216 0 -4 -1.784 -4 -4 z" opacity="0.1"/></g><g><rect width="46" height="46" x="-47" y="1" rx="4" transform="matrix(0,-1,1,0,0,0)" fill="url(#linearGradient3764)" fill-opacity="1"/></g><g><g clip-path="url(#clipPath-111658635)"><g opacity="0.1"><!-- color: #10b8f8 --><g><path d="m 18.16 11 c -1.527 -0.012 -3.035 0.484 -4.316 1.441 c -0.34 0.254 -0.941 0.828 -1.219 1.168 c -1.359 1.664 -1.906 3.863 -1.48 5.984 c 0.098 0.469 0.34 1.188 0.563 1.672 l 0.184 0.391 l -0.07 0.477 c -0.297 1.969 -0.117 4 0.516 5.852 c 1.242 3.629 4.066 6.453 7.691 7.695 c 1.852 0.637 3.883 0.813 5.852 0.516 l 0.477 -0.07 l 0.391 0.184 c 0.719 0.336 1.582 0.586 2.332 0.668 c 0.414 0.047 1.504 0.02 1.906 -0.051 c 1.488 -0.25 2.762 -0.887 3.824 -1.914 c 1.363 -1.32 2.113 -2.98 2.188 -4.875 c 0.051 -1.16 -0.184 -2.305 -0.695 -3.391 l -0.184 -0.391 l 0.074 -0.477 c 0.297 -1.969 0.117 -4 -0.516 -5.852 c -1.242 -3.629 -4.066 -6.453 -7.691 -7.695 c -1.852 -0.637 -3.883 -0.813 -5.852 -0.516 l -0.477 0.074 l -0.391 -0.184 c -1 -0.473 -2.059 -0.703 -3.105 -0.707 m 5.598 7.156 c 2.328 0 4.375 1.039 6.02 2.695 c 0.488 0.488 1.043 1.18 1.168 1.461 c 0.141 0.309 0.066 0.73 -0.176 0.98 c -0.188 0.191 -0.328 0.258 -0.594 0.281 c -0.32 0.023 -0.477 0.164 -0.902 -0.207 c -0.93 -0.824 -1.859 -1.582 -2.957 -1.945 c -0.941 -0.313 -1.656 -0.43 -2.668 -0.43 c -1.016 0 -1.73 0.117 -2.676 0.43 c -1.094 0.363 -2.01 0.898 -2.949 1.723 c -0.191 0.168 -0.41 0.336 -0.488 0.371 c -0.152 0.07 -0.457 0.082 -0.633 0.031 c -0.488 -0.148 -0.766 -0.77 -0.555 -1.234 c 0.129 -0.281 0.68 -0.973 1.168 -1.461 c 1.652 -1.656 3.91 -2.695 6.238 -2.695 m -0.082 5.332 c 1.355 0.012 2.68 0.449 3.809 1.305 c 0.316 0.242 0.434 0.379 0.512 0.613 c 0.117 0.344 0.008 0.738 -0.273 0.992 c -0.195 0.18 -0.363 0.242 -0.621 0.246 c -0.199 0 -0.266 -0.023 -0.746 -0.254 c -0.598 -0.289 -1.01 -0.434 -1.578 -0.547 c -0.34 -0.07 -0.512 -0.082 -1.125 -0.082 c -0.617 0 -0.789 0.016 -1.125 0.082 c -0.566 0.113 -0.98 0.254 -1.57 0.539 c -0.559 0.266 -0.734 0.309 -1 0.234 c -0.172 -0.047 -0.219 -0.074 -0.41 -0.25 c -0.344 -0.309 -0.383 -0.871 -0.09 -1.254 c 0.281 -0.367 1.477 -1.07 2.227 -1.313 c 0.66 -0.211 1.332 -0.316 1.992 -0.313 m -0.168 4.688 c 0.453 0 0.848 0.211 1.105 0.594 c 0.168 0.254 0.219 0.43 0.219 0.762 c -0.004 0.348 -0.105 0.609 -0.34 0.867 c -0.258 0.281 -0.551 0.418 -0.926 0.43 c -0.18 0.016 -0.348 -0.012 -0.441 -0.035 c -0.57 -0.188 -0.938 -0.68 -0.941 -1.262 c -0.004 -0.332 0.047 -0.508 0.215 -0.762 c 0.258 -0.383 0.652 -0.594 1.109 -0.594 m 0 0" fill="#000"/></g></g></g></g><g><g clip-path="url(#clipPath-126276412)"><g transform="translate(0,-1)"><!-- color: #10b8f8 --><g><path d="m 18.16 11 c -1.527 -0.012 -3.035 0.484 -4.316 1.441 c -0.34 0.254 -0.941 0.828 -1.219 1.168 c -1.359 1.664 -1.906 3.863 -1.48 5.984 c 0.098 0.469 0.34 1.188 0.563 1.672 l 0.184 0.391 l -0.07 0.477 c -0.297 1.969 -0.117 4 0.516 5.852 c 1.242 3.629 4.066 6.453 7.691 7.695 c 1.852 0.637 3.883 0.813 5.852 0.516 l 0.477 -0.07 l 0.391 0.184 c 0.719 0.336 1.582 0.586 2.332 0.668 c 0.414 0.047 1.504 0.02 1.906 -0.051 c 1.488 -0.25 2.762 -0.887 3.824 -1.914 c 1.363 -1.32 2.113 -2.98 2.188 -4.875 c 0.051 -1.16 -0.184 -2.305 -0.695 -3.391 l -0.184 -0.391 l 0.074 -0.477 c 0.297 -1.969 0.117 -4 -0.516 -5.852 c -1.242 -3.629 -4.066 -6.453 -7.691 -7.695 c -1.852 -0.637 -3.883 -0.813 -5.852 -0.516 l -0.477 0.074 l -0.391 -0.184 c -1 -0.473 -2.059 -0.703 -3.105 -0.707 m 5.598 7.156 c 2.328 0 4.375 1.039 6.02 2.695 c 0.488 0.488 1.043 1.18 1.168 1.461 c 0.141 0.309 0.066 0.73 -0.176 0.98 c -0.188 0.191 -0.328 0.258 -0.594 0.281 c -0.32 0.023 -0.477 0.164 -0.902 -0.207 c -0.93 -0.824 -1.859 -1.582 -2.957 -1.945 c -0.941 -0.313 -1.656 -0.43 -2.668 -0.43 c -1.016 0 -1.73 0.117 -2.676 0.43 c -1.094 0.363 -2.01 0.898 -2.949 1.723 c -0.191 0.168 -0.41 0.336 -0.488 0.371 c -0.152 0.07 -0.457 0.082 -0.633 0.031 c -0.488 -0.148 -0.766 -0.77 -0.555 -1.234 c 0.129 -0.281 0.68 -0.973 1.168 -1.461 c 1.652 -1.656 3.91 -2.695 6.238 -2.695 m -0.082 5.332 c 1.355 0.012 2.68 0.449 3.809 1.305 c 0.316 0.242 0.434 0.379 0.512 0.613 c 0.117 0.344 0.008 0.738 -0.273 0.992 c -0.195 0.18 -0.363 0.242 -0.621 0.246 c -0.199 0 -0.266 -0.023 -0.746 -0.254 c -0.598 -0.289 -1.01 -0.434 -1.578 -0.547 c -0.34 -0.07 -0.512 -0.082 -1.125 -0.082 c -0.617 0 -0.789 0.016 -1.125 0.082 c -0.566 0.113 -0.98 0.254 -1.57 0.539 c -0.559 0.266 -0.734 0.309 -1 0.234 c -0.172 -0.047 -0.219 -0.074 -0.41 -0.25 c -0.344 -0.309 -0.383 -0.871 -0.09 -1.254 c 0.281 -0.367 1.477 -1.07 2.227 -1.313 c 0.66 -0.211 1.332 -0.316 1.992 -0.313 m -0.168 4.688 c 0.453 0 0.848 0.211 1.105 0.594 c 0.168 0.254 0.219 0.43 0.219 0.762 c -0.004 0.348 -0.105 0.609 -0.34 0.867 c -0.258 0.281 -0.551 0.418 -0.926 0.43 c -0.18 0.016 -0.348 -0.012 -0.441 -0.035 c -0.57 -0.188 -0.938 -0.68 -0.941 -1.262 c -0.004 -0.332 0.047 -0.508 0.215 -0.762 c 0.258 -0.383 0.652 -0.594 1.109 -0.594 m 0 0" fill="#f9f9f9"/></g></g></g></g><g><g transform="translate(0,-1004.3622)"><path d="m 1 1043.36 0 4 c 0 2.216 1.784 4 4 4 l 38 0 c 2.216 0 4 -1.784 4 -4 l 0 -4 c 0 2.216 -1.784 4 -4 4 l -38 0 c -2.216 0 -4 -1.784 -4 -4 z" opacity="0.1"/></g></g></svg>
